icons/svg/bell-plus.svg

﻿<?xml version="1.0" encoding="utf-8"?>
<!DOCTYPE svg PUBLIC "-//W3C//DTD SVG 1.1//EN" "http://www.w3.org/Graphics/SVG/1.1/DTD/svg11.dtd">
<svg xmlns="http://www.w3.org/2000/svg" xmlns:xlink="http://www.w3.org/1999/xlink" version="1.1" baseProfile="full" width="24" height="24" viewBox="0 0 24.00 24.00" enable-background="new 0 0 24.00 24.00" xml:space="preserve">
	<path fill="#000000" fill-opacity="1" stroke-width="0.2" stroke-linejoin="round" d="M 10.01,21.0113C 10.01,22.1087 10.8988,22.9975 12.0025,22.9975C 13.1,22.9975 13.9888,22.1087 13.9888,21.0113M 18.8813,16.8212L 18.8813,11.0012C 18.8813,7.74875 16.6313,5.02875 13.5887,4.31125L 13.5887,3.58875C 13.5887,2.71 12.8813,2.0025 12.0025,2.0025C 11.1188,2.0025 10.41,2.71 10.41,3.58875L 10.41,4.31125C 7.36875,5.02875 5.1225,7.74875 5.1225,11.0012L 5.1225,16.8212L 2.9975,18.94L 2.9975,20L 21.0013,20L 21.0013,18.94M 16.0012,13.0075L 12.9975,13.0075L 12.9975,16.0113L 11.0013,16.0113L 11.0013,13.0075L 7.9975,13.0075L 7.9975,11.0012L 11.0013,11.0012L 11.0013,7.9975L 12.9975,7.9975L 12.9975,11.0012L 16.0012,11.0012"/>
</svg>

<svg xmlns="http://www.w3.org/2000/svg" version="1.1" baseProfile="full" width="24" height="24" viewBox="0 0 24.00 24.00" xml:space="preserve"><path fill="#000" fill-opacity="1" stroke-width=".2" stroke-linejoin="round" d="M10.01 21.01c0 1.1.89 1.987 1.992 1.987 1.098 0 1.987-.888 1.987-1.986m4.89-4.19V11c0-3.25-2.25-5.97-5.29-6.69v-.72c0-.88-.71-1.587-1.588-1.587-.883 0-1.592.707-1.592 1.586v.72C7.37 5.03 5.122 7.75 5.122 11v5.82l-2.124 2.12V20H21v-1.06m-5-5.933H13v3.004H11v-3.003H7.998v-2.006h3.004V7.998H13v3.004H16"/></svg>
